img/logo-twitter-9.svg

<svg fill="none" height="25" viewBox="0 0 24 25" width="24" xmlns="http://www.w3.org/2000/svg" xmlns:xlink="http://www.w3.org/1999/xlink"><clipPath id="a"><path d="m0 .770142h24v24h-24z"/></clipPath><g clip-path="url(#a)"><path d="m21.5864 7.86283c.0145.21.0145.42.0145.63194 0 6.45773-4.9162 13.90543-13.90551 13.90543v-.0038c-2.65548.0038-5.2558-.7568-7.491288-2.191.386129.0465.774193.0697 1.163228.0707 2.20064.0019 4.33838-.7365 6.06967-2.0962-2.09129-.0397-3.92516-1.4032-4.5658-3.3938.73258.1412 1.48742.1122 2.20645-.0842-2.28-.4607-3.92032-2.4639-3.92032-4.79036v-.06194c.67935.3784 1.44.5884 2.21806.6116-2.14742-1.43514-2.809353-4.29192-1.51258-6.52547 2.48129 3.05323 6.14226 4.90936 10.07229 5.10581-.3939-1.69742.1442-3.47613 1.4138-4.66935 1.9684-1.85033 5.0642-1.75549 6.9146.21193 1.0945-.21581 2.1435-.61742 3.1035-1.18645-.3648 1.13129-1.1284 2.09226-2.1484 2.7029.9687-.11419 1.9152-.37355 2.8065-.76935-.6562.98322-1.4826 1.83968-2.4387 2.53161z" fill="#000"/></g></svg>

<svg width="24" height="25" viewBox="0 0 24 25" fill="none" xmlns="http://www.w3.org/2000/svg">
<g clip-path="url(#clip0_3458_1469)">
<path d="M21.5864 7.86283C21.6009 8.07283 21.6009 8.28283 21.6009 8.49477C21.6009 14.9525 16.6847 22.4002 7.69539 22.4002V22.3964C5.03991 22.4002 2.43959 21.6396 0.204102 20.2054C0.590231 20.2519 0.978295 20.2751 1.36733 20.2761C3.56797 20.278 5.70571 19.5396 7.437 18.1799C5.34571 18.1402 3.51184 16.7767 2.8712 14.7861C3.60378 14.9273 4.35862 14.8983 5.07765 14.7019C2.79765 14.2412 1.15733 12.238 1.15733 9.91154V9.8496C1.83668 10.228 2.59733 10.438 3.37539 10.4612C1.22797 9.02606 0.566037 6.16928 1.86281 3.93573C4.3441 6.98896 8.00507 8.84509 11.9351 9.04154C11.5412 7.34412 12.0793 5.56541 13.3489 4.37219C15.3173 2.52186 18.4131 2.6167 20.2635 4.58412C21.358 4.36831 22.407 3.9667 23.367 3.39767C23.0022 4.52896 22.2386 5.48993 21.2186 6.10057C22.1873 5.98638 23.1338 5.72702 24.0251 5.33122C23.3689 6.31444 22.5425 7.1709 21.5864 7.86283Z" fill="black"/>
</g>
<defs>
<clipPath id="clip0_3458_1469">
<rect width="24" height="24" fill="white" transform="translate(0 0.770142)"/>
</clipPath>
</defs>
</svg>
